X:1
T:Amor sei bei rubini
T:Amor sei bei rubini
T:Peter Philips
T:Source : Melodia Olympica---Anversa---P.Phalesio & G.Bellero---1591. Editor: André Vierendeels (05/01/14)
C:Peter Philips
%%score [ 1 2 [ 3 4 ] ]
L:1/8
Q:1/4=100
M:4/4
K:C
V:1 treble nm="Canto" snm="S"
V:2 treble nm="Alto" snm="A"
V:3 treble-8 nm="Tenor 1" snm="T 1"
V:4 treble-8 nm="Tenor 2" snm="T 2"
V:1
 d8 | d4 z2 d2 | e2 c2 d4 | d4 z2 d2 | d2 g3 f e2 | d2 c2 B3 c | d4 c4 | A2 A2 d3 c | B2 d4 d2 | %9
w: A-|mor sei|bei ru- bi-|ni dis-|co- pren- do le|perl' al vi- vo|so- le,|dis- co- pren- do|le perl' al|
 d2 A2 c4 | B4 z2 A2 | A2 d3 c BA | B2 c2 d2 c2 | B3 c B4 | A2 d4 d2 | z2 d2 d2 g2- | gf e2 d2 c2 | %17
w: vi- vo so-|le, dis-|co- pren- * * *|* * do le|perl' al vi-|vo so- le,|dis- co- pren|_ do le perl' al|
 Bc d3 c/B/ AB | c2 d2 ^c4 | d2 d2 d2 e2- | ed c2 B2 d2 | e2 d2 d4 | B4 z2 e2- | ee e2 d2 e2 | %24
w: vi- * * * * * *|* vo so-|le, dis- co- pren-|* do le perl' al|vi- vo so-|le, for-|* man il dol- ce|
 dc de de d2 | B4 z2 e2- | ee d2 d2 B2 | AG AB AB A2 |"^-natural" A4 d2 f2- | f2 c4 e2- | %30
w: ri- * * * * * *|so, for-|* man il dol- ce|ri- * * * * * *|so, e fan|_ che sem-|
 e2 e2 g4- | g2 d2 d2 f2- | f2 c4 e2- | e2 d2 d4 | d8 | z2 e2 d2 c2- | cB c2 d2 e2 | z2 e2 d2 c2- | %38
w: * br'il vi-|* so, e fan|_ il sem-|* br'il vi-|so,|ro- se gi-|* gli'e vi- o- le,|ro- se gi-|
 cB c2 d2 e2 | B2 c2 d4 | d2 B2 A4 | B8 | z2 d4 f2- | f2 c4 e2- | e2 e4 g2- | g2 d2 d2 f2- | %46
w: * gli'e vi- o- le,|ro- se gi-|gli'e vi- o-|le,|e fan|_ che sem-|* br'il vi-|* so, e fan|
 f2 c4 e2- | e4 d4 | e8 | A2 f2 e2 d2- | d^c d2 e2 d2 | z2 f2 e2 d2- | d^c d2 e2 d2 | %53
w: _ che sem-|* br'il|vi-|so, ro- se gi-|* gli'e vi- o- le,|ro- se gi-|* gli'e vi- o- le,|
 z2 e2 d2 c2- | cB c2 d2 e2 | B2 c2 d4 | G2 g2 g3 f | ed cd ef gf | e4 c2 e2 | d8 | B8 || d8 | %62
w: ro- se gi-|* gli'e vi- o- le,|ro- se gi-|gli'e vi- o- *||* l'e vi-|o-|le.|Per-|
 d4 z2 d2 | d6 f2 | e8 | c8 | B8 | z2 A2 B2 c2 | d4 B4 | z2 g3 g f2 | e2 c2 de fd | efgf e2 d2 | %72
w: che, per-|che non|pos-|s'ahi-|me,|com' a- pe|suo- le|fug- ge- r'i|va- ghi fior'- _ _ _|_ _ _ _ _ i|
 e2 g2 f4 | e2 d2 e2 f2 | g4 d4 | z2 e3 e d2 | c2 A2 e4 | c2 g2 f2 e2 | g2 g3 g f2 | e2 d2 f4 | %80
w: va- ghi fio-|ri com' a- pe|suo- le|fug- ge- r'i|va- ghi fior'|i va- ghi fio-|ri fug- ger' i|va- ghi fio-|
 e2 d3 c BA | G3 A B2 A2 | G2 d2 e2 f2 | g6 d2 | z2 f3 f e2 | d2 c2 AB cd | ef gf ed c2 | B4 A4 | %88
w: ||ri com' a- pe|suo- le,|fug- ger' i|va- ghi fio- * * *|||
 G8- | G8- | G8 | z8 | z8 | z8 | z8 | z8 | G6 G2 | d4 z2 d2 | B2 e4 e2 | d2 B2 e2 d2 | z2 e2 d4 | %101
w: ri,|_|||||||e gu-|star de|sue l'ab- bia'i|dol- ci'hu- mo- ri,|de- sue|
 f2 e2 z2 f2 | e2 ^c2 d4 | A4 z2 f2- | f2 e2 d4 | d4 z2 f2 | e2 c2 e3 e | d2 ^c2 d4 | d8 | %109
w: lab- bia, i|dol- ci'hu- mo-|ri,- de|_ sue lab-|bia, i|dol- ci'hu- mo- ri|dol- ci'hu- mo-|ri,|
 z2 d4 e2 | d4 z2 e2 | d2 g4 e2 | z2 g2 e2 c2 | f4 e4 | z2 f2 e2 e2 | d8 | d8 | z2 d2 c2 B2 | %118
w: e gu-|star de|sue lab- bia,|i dol- ce'hu-|mo- ri,|i dol- ce'hu-|mo-|ri,|i dol- ce'hu-|
 e2 d2 z2 d2 | c2 B2 e2 d2 | z2 g2 e2 d2 | c2 B2 z2 g2 | e2 c2 c4 | B8 |] %124
w: mo- ri, i|dol- ce'hu- mo- ri,|i dol- ce'hu-|mo- ri, i|dol- ce'hu- mo-|ri.|
V:2
 B8 | A4 z2 A2 | c2 G2 A4 | B8 | z8 | z8 | z8 | z2 A2 A2 d2- | dc B2 A2 G2 | ^F3 G A2 E2 | %10
w: A-|mor sei|bei ru- bi-|ni||||dis- co- pren|_ do le perl' al|vi- * * vo|
"^#" G3 F ED E2 | ^F6 G2 | G3 G A2 G2 | z2 G2 G2 d2- | dc B2 A2 A2 | B2 GA Bc B2 | c2 C2 B,2 C2 | %17
w: so- * * * *|le, al|vi- vo so- le,|dis- co- pren-|* do le perl' al|vi- vo _ _ _ so-|le, al vi- vo|
 G,A, B,C D3 C/B,/ | A,4 A,4 | z2 D2 G2 G2- | GG G2 G3 G | G2 G2 ^F4 | G4 z2 G2- | GG G2 G2 G2 | %24
w: so- * * * * * *|* le,|dis- co- pren-|* do le perl' al|vi- vo so-|le, for-|* man il dol- ce|
 G8 | G4 z2 G2- | GG G2 A2 G2 | ^FE FG FG F2 | ^F4 z4 | z4 A2 c2- | c2 G4 B2- | B2 B2 d4 | %32
w: ri-|so, for-|* man il dol- ce|ri- * * * * * *|so,|e fan|_ che sem-|* br'il vi-|
 A4 z2 G2 | c2 B2 B4 | G4 A4 | G4 G4- | G2 G2 G4 | F2 G2 G4 | G4 G4- | G2 G2 G4 | A2 G4 ^F2 | %41
w: so, e|fan che sem-|br'il vi-|so, ro-|* se gi-|gli'e vi- o-|le, ro-|* se gi-|gli'e vi- o-|
 G4 z2 G2- | G2 _B4 F2 | A6 A2 | c4 G2 G2 | B4 F4 | A8 | G8 | G8 | F4 A4- | A2 A2 A4 | G2 A2 A4 | %52
w: le, e|_ fan che|sem- br'il|vi- so, e|fan che|sem-|br'il|vi-|so, ro-|* se gi-|gli'e vi- o-|
 A4 A4 | G2 G3 G G2 | G4 G4- | G4 G2 A2 | B4 B2 B2 | c4 G4- | G4 G4 | ^F2 G4 F2 | G8 || A8 | %62
w: le, ro-|se gi- gli'e vi-|o- le,|_ ro- se|gi- gli'e vi-|o- le,|_ e|vi- o- *|le.|Per-|
 B4 z2 B2 | B4 A4 | c4 G4- | G4 ^F4 | G8 | z8 | z8 | z8 | z8 | G4 A2 B2 | c4 A2 c2- | cc B2 A2 A2 | %74
w: che, per-|che non|pos- s'ahi-||me,|||||com' a- pe|suo- le fug-|* ge- r'i va- ghi|
 G2 c2 c2 B2 | AG/F/ EF G4 | A4 G2 G2 | A2 B2 c4 | B4 z2 c2- | cc B2 A2 A2 | G2 D2 E2 D2 | %81
w: fior' i va- ghi|fio- * * * * *|* ri, com'|a- pe suo-|le fug-|ge- r'i va- ghi fio-|* * * ri,|
 z2 G3 G F2 | E2 D2 A4 | G2 c3 c B2 | A6 G2 | A2 A,2 D2 G2 | GF ED CD E/F/G/E/ | ^F2 G4 F2 | %88
w: fug- ge- r'i|va- ghi fio-|ri, fug- ge- r'i|va- ghi|fior' i va- ghi|fio- * * * * * * * * *||
 G2 D4 E2 | D4 z2 E2 | D4 E4 | G4 A4- | A4 A4 | A4 G4 | z2 G2 F2 D2 | A4 G4 | z2 E2 E2 G2- | %97
w: ri, e gu-|star de|sue lab-|bia'i dol-|* ci'hu-|mo- ri,|i dol- ci'hu-|mo- ri,|i dol- ci'hu-|
 G2 ^FE F4 | G8- | G8- | G8 | z2 C4 D2 | ^C2 E2 F4 | E4 A4 | z2 A2 F2 D2 | A4 A4 | G2 E2 G4- | %107
w: * * * mo-|ri,|_||e gu-|star de lab-|bi- a,|e dol- ci'hu-|mo- r'i|dol- ci'hu- mo-|
 G2 E2 ^F2 G2- |"^#" G2 FE ^F4 | G8 | G4 G4 | G8 | G4 G4 | A8 | A4 z2 c2 | B2 B2 A4 | G8- | G8 | %118
w: ||ri,|e gu-|star|de sue|lab-|bia, i|dol- ci'hu- mo-|ri|_|
 G4 G4 | G4 G4- | G4 G4 | G4 G4 | G2 E2 C2 G2 | G8 |] %124
w: e gu-|star de|_ sue|lab- b'i|dol- ci'hu- mo- *|ri.|
V:3
 g8 | ^f4 z2 f2 | g2 g2 ^f4 | g4 g4- | g2 g2 cd ef | g2 e4 g2 | ^f3 g a2 e2 | ^f3 e fg f2 | g4 z4 | %9
w: A-|mor sei|bei ru- bi-|ni dis-|* co- pren- * * *|* do le|perl' al vi- vo|so- * * * *|le,|
 z2 d2 A4 | G4 A4 | d4 z2 d2 | d2 g3 f e2 | d2 e2 d3 e | ^f2 g4 f2 | g4 g2 g2 | cd ef g2 e2- | %17
w: al vi-|vo so-|le, dis-|co- pren- do le|perl' al vi- so|so- * *|le, dis- co-|pren- * * * * do|
 e2 d2 f3 g | a2 f2 e4 | d2 B2 B2 c2- | cd e2 d2 B2 | c2 B2 A4 | G4 z2 c2- | cc c2 B2 c2 | %24
w: _ le perl' al|vi- so so-|le, dis- co- pren-|* do le parl' al|vi- vo so-|le, for-|* man il dol- ce|
 BA Bc Bc B2 | d4 z2 c2- | cc B2 A2 d2 | d8 | d8 | d2 f4 c2- | c2 e4 e2 | g4 d4 | d2 f4 e2 | %33
w: ri- * * * * * *|so, for-|* man il dol- ce|ri-|so,|e fan che|_ sem- br'il|vi- so,|e fan che|
 g6 d2- | d2 g4 ^f2 | g4 z2 e2 | d2 c3 B c2 | d2 e2 z2 e2 | d2 c3 B c2 | d2 e2 B4 | d8 | d8 | %42
w: sem- bre'il|_ vi- *|so, ro-|se gi- gli'e vi-|o- le, ro-|se gi- gli'e vi-|o- le, vi-|o-|le,|
 z4 d4 | f4 c4 | e6 e2 | g4 d2 d2 | f4 c2 c2- | c2 B4 d2- | d2 cB ^c4 | d4 z2 f2 | e2 d3 c d2 | %51
w: e|fan che|sem- br'il|vi- so, e|fan che sem-|* br'il vi-||so, ro-|se gi- gli'e vi-|
 e2 d2 z2 f2 |"^-natural" e2 d3 c d2 | e2 c2 z2 e2 | d2 c3 B c2 | d2 e2 B2 c2 | d4 d2 g2 | %57
w: o- le, ro-|se gi- gli'e vi-|o- le, ro-|se gi- gli'e vi-|o- le, ro- se|gi- gli'e vi-|
 g3 f ed cd | ef gf ed cB | A2 G2 A4 | G8 || ^f8 | g4 z2 g2 | g4 f4 | g4 e4- | e2 d2 c4 | %66
w: o- * * * * *|||le.|Per-|che, per-|che non|pos- s'ahi-||
 d4 z2 d2 | e2 ^f2 g4 |"^-natural" d2 g3 g f2 | e2 d2 a4 | g4 a2 f2 | ed cd ef g2 | c8 | %73
w: me, com'|a- pe suo-|le fug- ge- r'i|va- ghi fio-|r'i va- ghi|fio- * * * * * *|ri,|
 z2 B2 c2 d2 | e4 A2 d2- | dd c2 B2 B2 | A3 B cd e2 | f2 ed cB c2 | d2 d2 e2 f2 | g4 d4 | %80
w: com' a- pe|suo- le fug-|* ge- r'i va- ghi|fio- * * * *||ri, com' a- pe|suo- le,|
 z2 g3 g f2 | e2 c2 d4 | G2 B2 c2 d2 | e4 d2 g2- | gg f2 d2 e2 | fg ag f2 ed | c4 z2 c2 | %87
w: fug- ge- r'i|va- ghi fio-|ri, com' a- pe|suo- le, fug-|* ge- r'i va- ghi|fio- * * * * * *|ri, i|
 d2 B2 c2 d2 | G4 z4 | z2 G4 c2 | B2 B2 c2 c2- | c2 B2 z2 d2 | c2 A2 d4 | A4 z2 c2 | B2 G2 d4 | %95
w: va- ghi fio- *|ri,|e gu-|star de sue lab-|* bia i|dol- ci'hu- mo-|ri, i|dol- ci'hu- mo-|
 A4 z2 c2 | B4 G4 | A8 | G2 G2 G2 c2 | B2 d2 c2 B2 | c4 G4 | A4 A4 | z4 z2 d2 | c2 A4 d2- | %104
w: ri, i|dol- ci'hu-|mo-|ri,- e gu- star|de sue lab- bia'i|dol- ci'hu-|mo- ri,|i|dol- ci'hu- mo-|
 d2 c2 z2 a2 | f2 d2 e2 c2 | z4 z2 c2 | B2 G2 A2 B2 | A8 | B2 B4 c2 | G2 G2 d2 c2- | c2 B2 B2 c2 | %112
w: * ri, i|dol- ci'hu- mo- ri,|i|dol- ci'hu- mo- *||ri, e gu-|star de sue lab-|* bia'i dol- ci'hu-|
 G4 c4 | z2 d2 c2 A2 | d4 A2 a2 | ^f2 g2 f4 | g2 d2 B2 G2 | c2 d2 z2 d2 | c2 B2 e2 d2 | %119
w: mo- ri,|i dol- ci'hu-|mo- ri, i|dol- ci'hu- mo-|ri, i dol- ci'hu-|mo- ri, i|dol- ci'hu- mo- ri,|
 z2 d2 c2 B2 | e2 d2 z2 g2 | e2 d2 c2 d2 | c2 g2 e4 | d8 |] %124
w: i dol- ci'hu-|mo- ri, i|dol- ci'hu- mo- r'i|dol- ci'hu- mo-|ri.|
V:4
 G8 | d4 z2 d2 | c2 e2 d4 | G8 | z8 | z8 | z8 | d6 d2 | GA Bc d2 B2- | B2 d2 c3 d | e2 d2 ^c4 | %11
w: A-|mor sei|bei ru- bi-|ni||||dis- co-|pren- * * * * do|_ le perl' al|vi- vo so-|
 d2 D2 D2 G2- | GF E2 D2 E2 | G4 G4 | D8 | G8 | z8 | z8 | z8 | z2 G2 G2 C2- | CB, C2 G2 G2 | %21
w: le, dis- co pren-|* do le perl' al|vi- vo|so-|le||||dis- co- pren-|* do le perl' al|
 C2 G2 D4 | G4 z2 C2- | CC C2 G2 C2 | G8 | G4 z2 C2- | CC G2 ^F2 G2 | D8 | D8 | z8 | z8 | z8 | %32
w: vi- vo so-|le, for-|* man il dol- ce|ri-|so, for-|* man il dol- ce|ri-|so,||||
 z4 A2 c2- | c2 G4 B2- | B2 B2 d4 | G2 c2 B2 c2 | G2 C2 G2 C2 | z2 c2 B2 c2 | G2 C2 G2 C2 | %39
w: e fan|_ che sem-|* bre'il vi-|so, ro- se gi-|gli'e vi- o- le,|ro- se gi-|gli'e vi- o- le,|
 G2 C2 G4 | ^F2 G2 D4 | G8 | G4 _B4 | F4 A4- | A2 A2 c4 | G2 G2 _B4 | F4 A4 | E2 G4 F2 | E8 | %49
w: ro- se gi-|gli'e vi- o-|le,|e fan|che sem-|* br'il vi-|so, e fan|che sem-|br'il vi- *||
 D2 d2 ^c2 d2 | A2 D2 A2 D2 | z2 D2 ^C2 D2 | A2 D2 A2 D2 | z2 C2 B,2 C2 | %54
w: so, ro- se gi-|gli'e vi- o- le,|ro- se gi-|gli'e vi- o- le,|re- se gi-|
"^SECUNDA PARS" G2 C2 G2 C2 | G4 G4 | G8 | C8 | C8 | D8 | G8 || d8 | G4 z2 G2 | G4 d4 | c8 | A8 | %66
w: gli'e vi- o- le,|ro- se|gi-|gli'e|vi-|o-|le.|Per-|che, per-|che non|pos-|s'ahi-|
 G8 | z8 | z8 | z2 B2 c2 d2 | e4 d4 | z2 c3 c B2 | A2 E2 FG AB | c2 G2 z4 | z2 E2 F2 G2 | %75
w: me,|||com' a- pe|suo- le|fug- ge- r'i|va- ghi fio- * * *|* ri,|com' a- pe|
 A4 E2 G2- | GG F2 E2 C2 | F2 G2 A4 | G4 c2 A2 | G4 z4 | z2 B,2 C2 D2 | E4 D4 | z2 G3 G F2 | %83
w: suo- le fug|_ ge- r'i va- ghi|fio- * *||ri,|com' a- pe|suo- le|fug- ge- r'i|
 E2 C2 G4 | D4 z4 | z8 | z8 | z8 | z2 G4 c2 | B4 d2 c2 | G4 C4 | z2 G2 F2 D2 | A4 D4 | %93
w: va- ghi fio-|ri,||||e gu-|star de sue|lab- bia|i dol- ci'hu-|mo- ri,|
 z2 F2 E2 C2 | G4 D4 | z2 F2 E2 C2 | E8 | D8 | z2 C4 C2 | G4 z2 G2 | C2 c4 B2 | z2 A2 F2 D2 | %102
w: i dol- ci'hu-|mo- ri,|i dol- ci'hu-|mo-|ri,|e gu-|star de|sue lab- bia|i dol- ci'hu-|
 A4 D4 | z2 A2 F2 D2 | A4 D4 | z2 d2 c2 A2 | c4 C4 | z2 E2 D2 B,2 | D8 | G4 z4 | z2 B4 c2 | %111
w: mo- ri,|i dol- ci'hu-|mo- ri,|i dol- ci'hu-|mo- ri,|i dol- ci'hu-|mo-|ri,|e gu-|
 G2 G2 d2 c2- | c2 B2 z2 c2 | A2 F2 A4 | D2 d2 c2 A2 | B3 c d4 | G4 z2 G2 | E2 B,2 C2 G2 | %118
w: star de sue lab-|* bia, i|dol- ci'hu- mo-|ri, i dol- ci'hu-|mo- * *|ri, i|dol- ci'hu- mo- ri,|
 z2 d2 c2 B2 | c2 G2 z2 G2 | c2 B2 c2 G2 | z2 G2 E2 B,2 | C8 | G8 |] %124
w: i dol- ci'hu-|mo- ri, i|dol- ci'hu- mo- ri,|i dol- ci'hu-|mo-|ri.|

